SVG/XBS.svg

<svg xmlns="http://www.w3.org/2000/svg" width="226.777" height="226.777" viewBox="0 0 226.777 226.777"><path d="M125.183 102.635a5.198 5.198 0 0 0-5.19-5.191H98.099v10.382h21.894a5.198 5.198 0 0 0 5.19-5.191z"/><path d="M113.386 0C50.765 0 0 50.765 0 113.386s50.766 113.387 113.387 113.387 113.387-50.766 113.387-113.387S176.008 0 113.386 0zm55.152 58.338c5.656 5.655 8.748 13.488 9.16 22.802a74.444 74.444 0 0 0-6.158-4.194c-4.453-2.72-9.319-5.096-14.505-7.104-2.009-5.186-4.384-10.051-7.104-14.504a73.64 73.64 0 0 0-4.179-6.139c9.362.426 17.209 3.561 22.786 9.139zm-4.06 45.562a105.895 105.895 0 0 1 5.575 10.326 106.187 106.187 0 0 1-5.573 10.326 137.606 137.606 0 0 0-.002-20.652zm8.102 16.228c1.363 3.516 2.48 7.034 3.323 10.525.875 3.624 1.438 7.124 1.691 10.473-2.548 2.188-5.419 4.267-8.602 6.212a83.177 83.177 0 0 1-9.792 5.09c1.738-5.481 3.093-11.261 4.041-17.246 3.561-4.903 6.69-9.948 9.339-15.054zm-9.338-26.858c-.949-5.985-2.303-11.763-4.041-17.246a82.886 82.886 0 0 1 9.792 5.092c3.183 1.944 6.054 4.021 8.602 6.211-.254 3.347-.816 6.846-1.691 10.473-.843 3.492-1.96 7.008-3.323 10.523-2.65-5.106-5.779-10.151-9.339-15.053zm-13.668-15.967a137.789 137.789 0 0 0-7.58-7.027c3.884.934 7.644 2.058 11.245 3.36a105.392 105.392 0 0 1 3.36 11.241 136.055 136.055 0 0 0-7.025-7.574zm7.025 66.271a105.717 105.717 0 0 1-3.36 11.241 105.315 105.315 0 0 1-11.248 3.362 137.14 137.14 0 0 0 14.608-14.603zm-10.837-85.689c1.872 3.063 3.568 6.341 5.09 9.792-5.479-1.736-11.253-3.091-17.233-4.04-4.897-3.563-9.919-6.681-14.979-9.317 7.158-2.794 14.24-4.525 20.922-5.024 2.182 2.543 4.259 5.41 6.2 8.589zm-25.065 84.082a5.648 5.648 0 0 1-.704.051H92.805a5.29 5.29 0 0 1-5.291-5.291V92.152a5.291 5.291 0 0 1 5.291-5.291h27.188c8.697 0 15.772 7.076 15.772 15.774 0 3.873-1.404 7.422-3.73 10.171a17.023 17.023 0 0 1 5.038 12.1c0 9.18-7.284 16.691-16.376 17.061zm2.144 24.098a108.563 108.563 0 0 1-10.189 5.49 108.066 108.066 0 0 1-10.189-5.49 137.728 137.728 0 0 0 20.378 0zm-20.38-103.678a108.2 108.2 0 0 1 10.19-5.491 108.808 108.808 0 0 1 10.189 5.491c-3.357-.25-6.758-.377-10.189-.377-3.432 0-6.832.127-10.19.377zm10.191-27.199c7.993 0 15.715 3.349 22.589 9.639-7.354.985-14.979 3.239-22.589 6.61-7.612-3.371-15.238-5.625-22.591-6.61 6.874-6.29 14.595-9.639 22.591-9.639zm-5.99 19.132c-5.063 2.636-10.082 5.755-14.979 9.317-5.982.948-11.756 2.303-17.234 4.04 1.521-3.451 3.218-6.728 5.091-9.792 1.94-3.179 4.015-6.046 6.198-8.589 6.684.499 13.765 2.23 20.924 5.024zm-30.934 96.829a137.494 137.494 0 0 0 7.581 7.028 105.779 105.779 0 0 1-11.248-3.362 105.554 105.554 0 0 1-3.36-11.241 137.57 137.57 0 0 0 7.027 7.575zm-7.027-66.272a105.694 105.694 0 0 1 3.36-11.241 106.042 106.042 0 0 1 11.246-3.36 137.428 137.428 0 0 0-14.606 14.601zM56.762 58.338c5.578-5.578 13.425-8.713 22.788-9.139a74.045 74.045 0 0 0-4.178 6.139c-2.721 4.454-5.096 9.318-7.105 14.504-5.187 2.01-10.05 4.384-14.505 7.104a73.591 73.591 0 0 0-6.157 4.194c.409-9.314 3.502-17.147 9.157-22.802zm4.059 66.214a106.403 106.403 0 0 1-5.573-10.326 106.158 106.158 0 0 1 5.573-10.324 137.021 137.021 0 0 0-.387 10.324c0 3.479.13 6.924.387 10.326zm1.239 10.629c.947 5.985 2.302 11.765 4.04 17.246a83.177 83.177 0 0 1-9.792-5.09c-3.183-1.945-6.054-4.023-8.599-6.212.253-3.348.813-6.849 1.689-10.473a82.536 82.536 0 0 1 3.325-10.524c2.647 5.106 5.774 10.151 9.337 15.053zm0-41.91c-3.563 4.902-6.69 9.946-9.338 15.052-1.365-3.515-2.482-7.031-3.325-10.525-.876-3.625-1.437-7.124-1.689-10.471 2.545-2.189 5.417-4.267 8.599-6.211a82.886 82.886 0 0 1 9.792-5.092c-1.736 5.483-3.091 11.262-4.039 17.247zm-18.8 43.553c-6.296-6.874-9.648-14.601-9.648-22.599 0-7.997 3.352-15.723 9.648-22.598a73.832 73.832 0 0 0 1.389 7.319c1.225 5.073 2.985 10.191 5.234 15.279-2.249 5.089-4.009 10.208-5.234 15.279a74.196 74.196 0 0 0-1.389 7.32zm13.502 33.29c-5.655-5.655-8.748-13.487-9.157-22.803a72.95 72.95 0 0 0 6.157 4.194c4.455 2.72 9.318 5.095 14.505 7.104 2.009 5.187 4.384 10.051 7.105 14.504a73.545 73.545 0 0 0 4.178 6.139c-9.363-.424-17.21-3.558-22.788-9.138zm22.779.455a82.818 82.818 0 0 1-5.091-9.793c5.479 1.735 11.254 3.091 17.235 4.038 4.896 3.563 9.917 6.683 14.978 9.318-7.159 2.793-14.24 4.525-20.924 5.023-2.184-2.541-4.258-5.409-6.198-8.586zm33.111 22.695c-7.996 0-15.717-3.348-22.591-9.64 7.353-.984 14.979-3.239 22.591-6.61 7.61 3.371 15.237 5.626 22.589 6.61-6.874 6.293-14.597 9.64-22.589 9.64zm5.987-19.133c5.061-2.635 10.082-5.754 14.978-9.316 5.982-.947 11.756-2.303 17.235-4.037a83.177 83.177 0 0 1-5.09 9.792c-1.941 3.176-4.019 6.043-6.201 8.585-6.681-.498-13.762-2.229-20.922-5.024zm49.899-4.017c-5.577 5.58-13.424 8.714-22.786 9.139a73.31 73.31 0 0 0 4.179-6.139c2.721-4.453 5.096-9.317 7.104-14.504 5.187-2.01 10.053-4.384 14.506-7.104a73.953 73.953 0 0 0 6.158-4.194c-.413 9.315-3.505 17.147-9.161 22.802zm13.503-33.29a73.544 73.544 0 0 0-1.389-7.319c-1.227-5.073-2.985-10.191-5.234-15.279 2.249-5.088 4.008-10.206 5.234-15.279a73.508 73.508 0 0 0 1.389-7.32c6.295 6.876 9.647 14.602 9.647 22.599s-3.352 15.724-9.647 22.598z"/><path d="M119.993 118.409H98.099v13.024h21.308c.192-.021.389-.032.586-.032a6.503 6.503 0 0 0 6.495-6.495 6.503 6.503 0 0 0-6.495-6.497z"/></svg>

<svg version="1.1" id="Layer_1" xmlns="http://www.w3.org/2000/svg" xmlns:xlink="http://www.w3.org/1999/xlink" x="0px" y="0px"
	 width="226.777px" height="226.777px" viewBox="0 0 226.777 226.777" enable-background="new 0 0 226.777 226.777"
	 xml:space="preserve">
<g>
	<path fill="#000000" d="M125.183,102.635c0-2.862-2.33-5.191-5.19-5.191H98.099v10.382h21.894
		C122.853,107.825,125.183,105.497,125.183,102.635z"/>
	<path fill="#000000" d="M113.386,0C50.765,0,0,50.765,0,113.386s50.766,113.387,113.387,113.387s113.387-50.766,113.387-113.387
		S176.008,0,113.386,0z M168.538,58.338c5.656,5.655,8.748,13.488,9.16,22.802c-1.921-1.457-3.97-2.856-6.158-4.194
		c-4.453-2.72-9.319-5.096-14.505-7.104c-2.009-5.186-4.384-10.051-7.104-14.504c-1.331-2.182-2.729-4.226-4.179-6.139
		C155.114,49.625,162.961,52.76,168.538,58.338z M164.478,103.9c2.085,3.407,3.95,6.858,5.575,10.326
		c-1.625,3.469-3.49,6.919-5.573,10.326c0.256-3.401,0.386-6.847,0.386-10.326C164.866,110.746,164.736,107.301,164.478,103.9z
		 M172.58,120.128c1.363,3.516,2.48,7.034,3.323,10.525c0.875,3.624,1.438,7.124,1.691,10.473c-2.548,2.188-5.419,4.267-8.602,6.212
		c-3.066,1.871-6.342,3.57-9.792,5.09c1.738-5.481,3.093-11.261,4.041-17.246C166.802,130.279,169.931,125.234,172.58,120.128z
		 M163.242,93.27c-0.949-5.985-2.303-11.763-4.041-17.246c3.45,1.521,6.726,3.218,9.792,5.092c3.183,1.944,6.054,4.021,8.602,6.211
		c-0.254,3.347-0.816,6.846-1.691,10.473c-0.843,3.492-1.96,7.008-3.323,10.523C169.931,103.217,166.802,98.172,163.242,93.27z
		 M149.574,77.303c-2.467-2.464-4.997-4.808-7.58-7.027c3.884,0.934,7.644,2.058,11.245,3.36c1.305,3.602,2.426,7.359,3.36,11.241
		C154.378,82.291,152.033,79.761,149.574,77.303z M156.599,143.574c-0.935,3.883-2.056,7.64-3.36,11.241
		c-3.602,1.306-7.363,2.427-11.248,3.362c2.586-2.221,5.116-4.564,7.583-7.028C152.033,148.689,154.378,146.159,156.599,143.574z
		 M145.762,57.885c1.872,3.063,3.568,6.341,5.09,9.792c-5.479-1.736-11.253-3.091-17.233-4.04
		c-4.897-3.563-9.919-6.681-14.979-9.317c7.158-2.794,14.24-4.525,20.922-5.024C141.744,51.839,143.821,54.706,145.762,57.885z
		 M120.697,141.967c-0.232,0.029-0.465,0.051-0.704,0.051H92.805c-2.922,0-5.291-2.367-5.291-5.291V92.152
		c0-2.922,2.369-5.291,5.291-5.291h27.188c8.697,0,15.772,7.076,15.772,15.774c0,3.873-1.404,7.422-3.73,10.171
		c3.11,3.095,5.038,7.375,5.038,12.1C137.073,134.086,129.789,141.597,120.697,141.967z M122.841,166.065
		c-3.371,2.052-6.78,3.885-10.189,5.49c-3.411-1.605-6.82-3.438-10.189-5.49c3.356,0.249,6.756,0.378,10.189,0.378
		C116.083,166.443,119.482,166.314,122.841,166.065z M102.461,62.387c3.37-2.051,6.777-3.886,10.19-5.491
		c3.409,1.605,6.818,3.44,10.189,5.491c-3.357-0.25-6.758-0.377-10.189-0.377C109.219,62.01,105.819,62.137,102.461,62.387z
		 M112.652,35.188c7.993,0,15.715,3.349,22.589,9.639c-7.354,0.985-14.979,3.239-22.589,6.61c-7.612-3.371-15.238-5.625-22.591-6.61
		C96.935,38.537,104.656,35.188,112.652,35.188z M106.662,54.32c-5.063,2.636-10.082,5.755-14.979,9.317
		c-5.982,0.948-11.756,2.303-17.234,4.04c1.521-3.451,3.218-6.728,5.091-9.792c1.94-3.179,4.015-6.046,6.198-8.589
		C92.422,49.795,99.503,51.526,106.662,54.32z M75.728,151.149c2.465,2.464,4.998,4.808,7.581,7.028
		c-3.885-0.936-7.646-2.057-11.248-3.362c-1.303-3.602-2.427-7.358-3.36-11.241C70.923,146.159,73.269,148.689,75.728,151.149z
		 M68.701,84.877c0.933-3.881,2.057-7.639,3.36-11.241c3.602-1.302,7.362-2.426,11.246-3.36c-2.582,2.219-5.115,4.563-7.58,7.027
		C73.269,79.763,70.923,82.292,68.701,84.877z M56.762,58.338c5.578-5.578,13.425-8.713,22.788-9.139
		c-1.45,1.914-2.846,3.957-4.178,6.139c-2.721,4.454-5.096,9.318-7.105,14.504c-5.187,2.01-10.05,4.384-14.505,7.104
		c-2.19,1.338-4.239,2.737-6.157,4.194C48.014,71.826,51.107,63.993,56.762,58.338z M60.821,124.552
		c-2.083-3.407-3.947-6.857-5.573-10.326c1.625-3.468,3.49-6.918,5.573-10.324c-0.257,3.399-0.387,6.847-0.387,10.324
		C60.434,117.705,60.564,121.15,60.821,124.552z M62.06,135.181c0.947,5.985,2.302,11.765,4.04,17.246
		c-3.45-1.52-6.726-3.219-9.792-5.09c-3.183-1.945-6.054-4.023-8.599-6.212c0.253-3.348,0.813-6.849,1.689-10.473
		c0.842-3.491,1.959-7.009,3.325-10.524C55.37,125.234,58.497,130.279,62.06,135.181z M62.06,93.271
		c-3.563,4.902-6.69,9.946-9.338,15.052c-1.365-3.515-2.482-7.031-3.325-10.525c-0.876-3.625-1.437-7.124-1.689-10.471
		c2.545-2.189,5.417-4.267,8.599-6.211c3.066-1.874,6.342-3.571,9.792-5.092C64.363,81.507,63.008,87.286,62.06,93.271z
		 M43.26,136.824c-6.296-6.874-9.648-14.601-9.648-22.599c0-7.997,3.352-15.723,9.648-22.598c0.327,2.384,0.786,4.825,1.389,7.319
		c1.225,5.073,2.985,10.191,5.234,15.279c-2.249,5.089-4.009,10.208-5.234,15.279C44.047,131.999,43.587,134.44,43.26,136.824z
		 M56.762,170.114c-5.655-5.655-8.748-13.487-9.157-22.803c1.917,1.457,3.967,2.858,6.157,4.194
		c4.455,2.72,9.318,5.095,14.505,7.104c2.009,5.187,4.384,10.051,7.105,14.504c1.332,2.183,2.728,4.227,4.178,6.139
		C70.187,178.828,62.34,175.694,56.762,170.114z M79.541,170.569c-1.873-3.066-3.571-6.342-5.091-9.793
		c5.479,1.735,11.254,3.091,17.235,4.038c4.896,3.563,9.917,6.683,14.978,9.318c-7.159,2.793-14.24,4.525-20.924,5.023
		C83.555,176.614,81.481,173.746,79.541,170.569z M112.652,193.264c-7.996,0-15.717-3.348-22.591-9.64
		c7.353-0.984,14.979-3.239,22.591-6.61c7.61,3.371,15.237,5.626,22.589,6.61C128.367,189.917,120.644,193.264,112.652,193.264z
		 M118.639,174.131c5.061-2.635,10.082-5.754,14.978-9.316c5.982-0.947,11.756-2.303,17.235-4.037
		c-1.521,3.45-3.218,6.726-5.09,9.792c-1.941,3.176-4.019,6.043-6.201,8.585C132.88,178.657,125.799,176.926,118.639,174.131z
		 M168.538,170.114c-5.577,5.58-13.424,8.714-22.786,9.139c1.45-1.912,2.848-3.956,4.179-6.139
		c2.721-4.453,5.096-9.317,7.104-14.504c5.187-2.01,10.053-4.384,14.506-7.104c2.188-1.336,4.237-2.737,6.158-4.194
		C177.286,156.627,174.194,164.459,168.538,170.114z M182.041,136.824c-0.327-2.384-0.785-4.825-1.389-7.319
		c-1.227-5.073-2.985-10.191-5.234-15.279c2.249-5.088,4.008-10.206,5.234-15.279c0.604-2.494,1.062-4.935,1.389-7.32
		c6.295,6.876,9.647,14.602,9.647,22.599C191.688,122.223,188.336,129.95,182.041,136.824z"/>
	<path fill="#000000" d="M119.993,118.409H98.099v13.024h21.308c0.192-0.021,0.389-0.032,0.586-0.032
		c3.581,0,6.495-2.915,6.495-6.495C126.488,121.322,123.574,118.409,119.993,118.409z"/>
</g>
</svg>
